X: 10821
T: LADY CHARLOTTE BRUCE'S STRATHSPEY
Q: "Slow"
%R: jig, strathspey
B: "Edinburgh Repository of Music" v.1 p.82 #1
F: http://digital.nls.uk/special-collections-of-printed-music/pageturner.cfm?id=87776133
Z: 2015 John Chambers <jc:trillian.mit.edu>
M: 6/8
L: 1/8
K: F
B |\
A2c (A/B/c).A | B2d G2B | A2B {d}cAF | TE2F G2B |\
A2c (A/B/c).A | TB2d GAB | (cA).F (BG).E | F3 F2 :|
f |\
(e/f/g)e f2c | d2e f2a | {a}gfg a2f | Te2f g2a |\
(e/f/g)e f2c | {Bc}d2B Acf | (cAF) (BGE) | F3 F2 ||
f |\
(e/f/g)e f2c | d2e f2a | {a}gfg a2f | e2f (gab) |\
afc def | {d}cBA TB>cd | (cA).F (BG).E | F3 F2 |]
